X:1
T:Cairo in the Cabbage Patch
S:Taylor Kimball
M:C|
L:1/8
R:Reel
D:Marimac Recordings 9036-C, "Kimble Family: Carroll County Pioneers" (1992)
F: https://www.slippery-hill.com/recording/cairo-cabbage-patch
Z:Transcribed by Andrew Kuntz
K:D
ABd2 +slide+f3a|e2d4(fg|a3)b agfe|d2+slide+f3g fedB|
ABde fed2|e2dc Bcd2|edBc ABc2|d2d4||
A2-|ABde +slide+f2(f/g/f)|e2d4((3efg|a)bag fga2|+slide+f3g fedB|
ABde fedf|e2dc Bcd2|edBd AB c2|d6||
=c2|AGFE D2D2|+slide+f3g f2a2-|abag e(c d2)|f3g fedB|
AGFE D2D2|+slide+f3g feBc|edBc A2Bc|d6(3dcB|
A(GF)G A2d2|f3g f2a2-|abag e(c d2)|f3g fedB|
AG F2Ac|d2 f3d BABc|edBc A2Bc|d6 ||

